;FLAVOR:UltiGCode
;TIME:5196
;MATERIAL:11127
;MATERIAL2:0
;NOZZLE_DIAMETER:0.4
;MINX:70.355
;MINY:88.855
;MINZ:0.27
;MAXX:150.572
;MAXY:134.145
;MAXZ:24.12
;Generated with Cura_SteamEngine 5.2.1
M82 ;absolute extrusion mode
G0 F3000 Y50 ;avoid prime blob
G92 E0
G92 E0
G10
;LAYER_COUNT:160
;LAYER:0
M107
G0 F4500 X74.115 Y91.422 Z0.27
;TYPE:SKIRT
G11
G1 F1800 X74.77 Y90.98 E0.08534
G1 X75.466 Y90.607 E0.17062
G1 X76.196 Y90.307 E0.25586
G1 X76.953 Y90.081 E0.34118
G1 X77.729 Y89.934 E0.42648
G1 X78.792 Y89.86 E0.54156
G1 X81.417 Y89.858 E0.82506
G1 X82.206 Y89.897 E0.91038
G1 X82.986 Y90.016 E0.99559
G1 X83.751 Y90.214 E1.08094
G1 X84.594 Y90.525 E1.17798
G1 X85.293 Y90.038 E1.26998
G1 X85.984 Y89.654 E1.35536
G1 X86.709 Y89.342 E1.4406
G1 X87.462 Y89.105 E1.52586
G1 X88.236 Y88.946 E1.6112
G1 X89.118 Y88.855 E1.70696
G1 X91.849 Y88.855 E2.00191
G1 X92.638 Y88.895 E2.08723
G1 X93.418 Y89.014 E2.17244
G1 X94.183 Y89.212 E2.25779
G1 X94.923 Y89.486 E2.34301
G1 X95.632 Y89.834 E2.42831
G1 X96.303 Y90.252 E2.51369
G1 X96.675 Y90.54 E2.5645
G1 X97.133 Y90.343 E2.61834
G1 X97.887 Y90.106 E2.7037
G1 X98.66 Y89.946 E2.78896
G1 X99.543 Y89.855 E2.88483
G1 X121.743 Y89.855 E5.28243
G1 X122.526 Y89.605 E5.37119
G1 X123.3 Y89.446 E5.45653
G1 X124.182 Y89.355 E5.55229
G1 X125.545 Y89.355 E5.6995
G1 X126.334 Y89.395 E5.78482
G1 X127.114 Y89.514 E5.87003
G1 X127.879 Y89.712 E5.95538
G1 X128.619 Y89.986 E6.0406
G1 X129.13 Y90.237 E6.10209
G1 X129.415 Y90.038 E6.13963
G1 X130.106 Y89.654 E6.225
G1 X130.831 Y89.342 E6.31025
G1 X131.584 Y89.105 E6.3955
G1 X132.358 Y88.946 E6.48084
G1 X133.24 Y88.855 E6.5766
G1 X135.97 Y88.855 E6.87144
G1 X136.759 Y88.895 E6.95676
G1 X137.539 Y89.014 E7.04198
G1 X138.304 Y89.212 E7.12732
G1 X139.044 Y89.486 E7.21254
G1 X139.753 Y89.834 E7.29784
G1 X140.424 Y90.252 E7.38322
G1 X141.048 Y90.735 E7.46844
G1 X141.621 Y91.278 E7.5537
G1 X142.136 Y91.877 E7.63901
G1 X142.587 Y92.525 E7.72428
G1 X142.971 Y93.216 E7.80966
G1 X143.283 Y93.941 E7.8949
G1 X143.52 Y94.694 E7.98016
G1 X143.601 Y95.089 E8.02371
G1 X144.525 Y95.254 E8.12508
G1 X145.284 Y95.47 E8.2103
G1 X146.018 Y95.762 E8.29562
G1 X146.719 Y96.126 E8.38092
G1 X147.379 Y96.56 E8.46623
G1 X147.992 Y97.058 E8.55153
G1 X148.551 Y97.615 E8.63676
G1 X149.051 Y98.226 E8.72202
G1 X149.487 Y98.885 E8.80736
G1 X149.854 Y99.584 E8.89263
G1 X150.148 Y100.317 E8.97792
G1 X150.367 Y101.076 E9.06324
G1 X150.507 Y101.853 E9.14851
G1 X150.572 Y102.854 E9.25684
G1 X150.572 Y116.329 E10.71214
G1 X150.532 Y117.118 E10.79746
G1 X150.413 Y117.898 E10.88268
G1 X150.215 Y118.663 E10.96802
G1 X149.941 Y119.403 E11.05324
G1 X149.593 Y120.112 E11.13854
G1 X149.175 Y120.783 E11.22392
G1 X148.692 Y121.407 E11.30914
G1 X148.149 Y121.98 E11.3944
G1 X147.55 Y122.495 E11.47971
G1 X146.902 Y122.946 E11.56498
G1 X146.211 Y123.33 E11.65036
G1 X145.486 Y123.642 E11.7356
G1 X144.733 Y123.879 E11.82086
G1 X143.771 Y124.077 E11.92693
G1 X143.771 Y126.344 E12.17177
G1 X143.731 Y127.132 E12.25698
G1 X143.612 Y127.913 E12.3423
G1 X143.414 Y128.677 E12.42754
G1 X143.14 Y129.418 E12.51286
G1 X142.793 Y130.127 E12.59811
G1 X142.375 Y130.798 E12.68349
G1 X141.892 Y131.422 E12.76871
G1 X141.348 Y131.995 E12.85405
G1 X140.75 Y132.51 E12.93928
G1 X140.102 Y132.961 E13.02454
G1 X139.412 Y133.345 E13.10983
G1 X138.686 Y133.657 E13.19517
G1 X137.933 Y133.894 E13.28043
G1 X137.16 Y134.054 E13.36568
G1 X136.277 Y134.145 E13.46155
G1 X133.545 Y134.145 E13.7566
G1 X132.756 Y134.105 E13.84193
G1 X131.976 Y133.986 E13.92714
G1 X131.211 Y133.788 E14.01248
G1 X130.471 Y133.514 E14.09771
G1 X129.762 Y133.166 E14.183
G1 X129.141 Y132.778 E14.26209
G1 X128.26 Y133.157 E14.36567
G1 X127.507 Y133.394 E14.45092
G1 X126.734 Y133.554 E14.53618
G1 X125.851 Y133.645 E14.63205
G1 X124.272 Y133.645 E14.80258
G1 X123.483 Y133.605 E14.8879
G1 X122.703 Y133.486 E14.97311
G1 X121.938 Y133.288 E15.05846
G1 X121.552 Y133.145 E15.10291
G1 X99.85 Y133.145 E17.44673
G1 X99.061 Y133.105 E17.53205
G1 X98.281 Y132.986 E17.61727
G1 X97.516 Y132.788 E17.70261
G1 X96.677 Y132.477 E17.79924
G1 X95.98 Y132.962 E17.89095
G1 X95.289 Y133.346 E17.97633
G1 X94.564 Y133.658 E18.06157
G1 X93.811 Y133.895 E18.14683
G1 X93.037 Y134.054 E18.23217
G1 X92.155 Y134.145 E18.32793
G1 X89.424 Y134.145 E18.62288
G1 X88.635 Y134.105 E18.7082
G1 X87.855 Y133.986 E18.79341
G1 X87.09 Y133.788 E18.87875
G1 X86.35 Y133.514 E18.96398
G1 X85.641 Y133.166 E19.04928
G1 X84.97 Y132.748 E19.13465
G1 X84.595 Y132.457 E19.18592
G1 X84.14 Y132.653 E19.23942
G1 X83.386 Y132.89 E19.32478
G1 X82.613 Y133.05 E19.41004
G1 X81.729 Y133.141 E19.50601
G1 X78.848 Y133.14 E19.81716
G1 X78.059 Y133.1 E19.90248
G1 X77.279 Y132.98 E19.98771
G1 X76.514 Y132.782 E20.07306
G1 X75.774 Y132.507 E20.15832
G1 X75.065 Y132.16 E20.24357
G1 X74.469 Y131.793 E20.31916
G1 X73.563 Y131.2 E20.4361
G1 X72.949 Y130.703 E20.52142
G1 X72.389 Y130.146 E20.60672
G1 X71.887 Y129.536 E20.69204
G1 X71.451 Y128.878 E20.77729
G1 X71.082 Y128.18 E20.86256
G1 X70.787 Y127.447 E20.94789
G1 X70.567 Y126.689 E21.03314
G1 X70.424 Y125.912 E21.11846
G1 X70.358 Y124.898 E21.22821
G1 X70.355 Y99.038 E24.02109
G1 X70.395 Y98.249 E24.10641
G1 X70.514 Y97.469 E24.19162
G1 X70.712 Y96.704 E24.27696
G1 X70.986 Y95.963 E24.36229
G1 X71.161 Y95.505 E24.41524
G1 X71.435 Y94.765 E24.50046
G1 X71.783 Y94.056 E24.58576
G1 X72.201 Y93.385 E24.67114
G1 X72.684 Y92.761 E24.75636
G1 X73.4 Y92.018 E24.8678
G1 X74.115 Y91.422 E24.96833
G0 F4500 X74.372 Y91.73
G1 F1800 X75.011 Y91.302 E25.05139
G1 X75.691 Y90.944 E25.13439
G1 X76.405 Y90.658 E25.21746
G1 X77.145 Y90.447 E25.30056
G1 X77.903 Y90.314 E25.38368
G1 X78.792 Y90.26 E25.47987
G1 X81.417 Y90.258 E25.76337
G1 X82.186 Y90.297 E25.84652
G1 X82.945 Y90.416 E25.9295
G1 X83.689 Y90.613 E26.01262
G1 X84.677 Y90.99 E26.12683
G1 X85.034 Y90.697 E26.17671
G1 X85.676 Y90.274 E26.25974
G1 X86.359 Y89.919 E26.34287
G1 X87.074 Y89.638 E26.42584
G1 X87.816 Y89.432 E26.50901
G1 X88.574 Y89.304 E26.59203
G1 X89.423 Y89.255 E26.68388
G1 X91.849 Y89.255 E26.94588
G1 X92.617 Y89.295 E27.02894
G1 X93.377 Y89.414 E27.11202
G1 X94.12 Y89.612 E27.19507
G1 X94.839 Y89.886 E27.27816
G1 X95.525 Y90.233 E27.36119
G1 X96.172 Y90.649 E27.44427
G1 X96.6 Y90.992 E27.5035
G1 X97.499 Y90.638 E27.60785
G1 X98.24 Y90.432 E27.69091
G1 X98.998 Y90.304 E27.77394
G1 X99.849 Y90.255 E27.866
G1 X121.84 Y90.255 E30.24102
G1 X122.138 Y90.138 E30.2756
G1 X122.88 Y89.932 E30.35877
G1 X123.638 Y89.804 E30.44179
G1 X124.487 Y89.755 E30.53363
G1 X125.545 Y89.755 E30.6479
G1 X126.313 Y89.795 E30.73095
G1 X127.073 Y89.914 E30.81403
G1 X127.816 Y90.112 E30.89708
G1 X128.535 Y90.386 E30.98018
G1 X129.154 Y90.699 E31.05509
G1 X129.798 Y90.274 E31.13842
G1 X130.481 Y89.919 E31.22156
G1 X131.196 Y89.638 E31.30453
G1 X131.938 Y89.432 E31.38769
G1 X132.696 Y89.304 E31.47072
G1 X133.545 Y89.255 E31.56256
G1 X135.97 Y89.255 E31.82446
G1 X136.738 Y89.295 E31.90752
G1 X137.498 Y89.414 E31.9906
G1 X138.241 Y89.612 E32.07364
G1 X138.96 Y89.886 E32.15674
G1 X139.646 Y90.233 E32.23977
G1 X140.293 Y90.649 E32.32284
G1 X140.893 Y91.13 E32.40589
G1 X141.44 Y91.671 E32.48898
G1 X141.928 Y92.266 E32.57209
G1 X142.351 Y92.908 E32.65512
G1 X142.706 Y93.591 E32.73826
G1 X142.987 Y94.306 E32.82123
G1 X143.193 Y95.048 E32.90439
G1 X143.265 Y95.476 E32.95127
G1 X143.915 Y95.543 E33.02184
G1 X144.668 Y95.701 E33.10493
G1 X145.4 Y95.936 E33.18796
G1 X146.104 Y96.247 E33.27108
G1 X146.772 Y96.628 E33.35414
G1 X147.397 Y97.077 E33.43725
G1 X147.971 Y97.588 E33.52025
G1 X148.49 Y98.156 E33.60335
G1 X148.946 Y98.775 E33.68638
G1 X149.336 Y99.438 E33.76945
G1 X149.656 Y100.138 E33.85258
G1 X149.9 Y100.867 E33.9356
G1 X150.068 Y101.618 E34.01871
G1 X150.172 Y102.511 E34.11581
G1 X150.172 Y116.329 E35.60815
G1 X150.132 Y117.097 E35.69121
G1 X150.013 Y117.857 E35.77429
G1 X149.815 Y118.6 E35.85734
G1 X149.541 Y119.319 E35.94044
G1 X149.194 Y120.005 E36.02346
G1 X148.778 Y120.652 E36.10654
G1 X148.297 Y121.252 E36.18959
G1 X147.756 Y121.799 E36.27268
G1 X147.161 Y122.287 E36.35579
G1 X146.519 Y122.71 E36.43882
G1 X145.836 Y123.065 E36.52195
G1 X145.121 Y123.346 E36.60492
G1 X144.379 Y123.552 E36.68809
G1 X143.371 Y123.722 E36.79849
G1 X143.371 Y126.344 E37.08167
G1 X143.331 Y127.112 E37.16472
G1 X143.212 Y127.872 E37.2478
G1 X143.014 Y128.615 E37.33085
G1 X142.741 Y129.334 E37.41391
G1 X142.394 Y130.02 E37.49693
G1 X141.978 Y130.667 E37.58001
G1 X141.496 Y131.267 E37.66313
G1 X140.956 Y131.814 E37.74614
G1 X140.361 Y132.302 E37.82925
G1 X139.719 Y132.726 E37.91234
G1 X139.036 Y133.08 E37.99542
G1 X138.321 Y133.362 E38.07843
G1 X137.58 Y133.568 E38.1615
G1 X136.821 Y133.696 E38.24463
G1 X135.971 Y133.745 E38.33658
G1 X133.545 Y133.745 E38.59859
G1 X132.777 Y133.705 E38.68164
G1 X132.017 Y133.586 E38.76472
G1 X131.274 Y133.388 E38.84777
G1 X130.555 Y133.114 E38.93087
G1 X129.869 Y132.767 E39.01389
G1 X129.146 Y132.302 E39.10673
G1 X128.611 Y132.58 E39.17185
G1 X127.895 Y132.862 E39.25496
G1 X127.154 Y133.068 E39.33802
G1 X126.395 Y133.196 E39.42115
G1 X125.545 Y133.245 E39.5131
G1 X124.272 Y133.245 E39.65059
G1 X123.504 Y133.205 E39.73364
G1 X122.744 Y133.086 E39.81672
G1 X122.001 Y132.888 E39.89977
G1 X121.626 Y132.745 E39.94311
G1 X99.85 Y132.745 E42.29492
G1 X99.082 Y132.705 E42.37798
G1 X98.322 Y132.586 E42.46106
G1 X97.579 Y132.388 E42.5441
G1 X96.593 Y132.012 E42.65807
G1 X96.239 Y132.303 E42.70756
G1 X95.597 Y132.726 E42.79059
G1 X94.914 Y133.081 E42.87373
G1 X94.199 Y133.362 E42.9567
G1 X93.457 Y133.568 E43.03986
G1 X92.699 Y133.696 E43.12289
G1 X91.85 Y133.745 E43.21473
G1 X89.424 Y133.745 E43.47674
G1 X88.656 Y133.705 E43.5598
G1 X87.896 Y133.586 E43.64288
G1 X87.153 Y133.388 E43.72592
G1 X86.434 Y133.114 E43.80902
G1 X85.748 Y132.767 E43.89205
G1 X85.101 Y132.351 E43.97512
G1 X84.67 Y132.005 E44.03481
G1 X83.774 Y132.358 E44.13882
G1 X83.033 Y132.564 E44.22188
G1 X82.275 Y132.692 E44.3049
G1 X81.421 Y132.741 E44.39729
G1 X78.848 Y132.74 E44.67517
G1 X78.08 Y132.7 E44.75823
G1 X77.32 Y132.58 E44.84133
G1 X76.577 Y132.382 E44.92437
G1 X75.858 Y132.108 E45.00747
G1 X75.172 Y131.761 E45.0905
G1 X74.694 Y131.462 E45.15139
G1 X73.782 Y130.865 E45.26911
G1 X73.186 Y130.378 E45.35223
G1 X72.644 Y129.833 E45.43525
G1 X72.162 Y129.234 E45.51828
G1 X71.744 Y128.588 E45.60138
G1 X71.396 Y127.902 E45.68446
G1 X71.12 Y127.184 E45.76753
G1 X70.921 Y126.441 E45.85061
G1 X70.8 Y125.681 E45.93372
G1 X70.758 Y124.898 E46.0184
G1 X70.755 Y99.038 E48.81128
G1 X70.795 Y98.27 E48.89434
G1 X70.914 Y97.51 E48.97742
G1 X71.112 Y96.767 E49.06047
G1 X71.386 Y96.048 E49.14357
G1 X71.561 Y95.568 E49.19874
G1 X71.835 Y94.849 E49.28184
G1 X72.182 Y94.163 E49.36487
G1 X72.598 Y93.516 E49.44794
G1 X73.079 Y92.916 E49.53099
G1 X73.682 Y92.302 E49.62394
G1 X74.372 Y91.73 E49.72073
G0 F4500 X74.627 Y92.038
G1 F1800 X75.251 Y91.625 E49.80155
G1 X75.915 Y91.281 E49.88231
G1 X76.612 Y91.01 E49.96308
G1 X77.335 Y90.815 E50.04395
G1 X78.073 Y90.698 E50.12465
G1 X78.793 Y90.66 E50.20252
G1 X81.418 Y90.658 E50.48602
G1 X82.165 Y90.697 E50.56681
G1 X82.903 Y90.816 E50.64754
G1 X83.625 Y91.013 E50.72837
G1 X84.321 Y91.286 E50.80911
G1 X84.692 Y91.479 E50.85428
G1 X85.421 Y90.912 E50.95402
G1 X86.057 Y90.517 E51.03488
G1 X86.731 Y90.193 E51.11564
G1 X87.436 Y89.943 E51.19643
G1 X88.164 Y89.769 E51.27727
G1 X89.054 Y89.655 E51.37417
G1 X91.849 Y89.655 E51.67603
G1 X92.596 Y89.695 E51.75682
G1 X93.334 Y89.814 E51.83756
G1 X94.056 Y90.012 E51.91841
G1 X94.752 Y90.285 E51.99916
G1 X95.415 Y90.632 E52.07997
G1 X96.038 Y91.047 E52.16082
G1 X96.558 Y91.481 E52.23397
G1 X97.156 Y91.194 E52.30561
G1 X97.861 Y90.943 E52.38643
G1 X98.588 Y90.769 E52.46716
G1 X99.478 Y90.655 E52.56407
G1 X121.902 Y90.655 E54.98586
G1 X122.5 Y90.443 E55.05438
G1 X123.228 Y90.269 E55.13522
G1 X124.118 Y90.155 E55.23213
G1 X125.545 Y90.155 E55.38624
G1 X126.292 Y90.195 E55.46703
G1 X127.03 Y90.314 E55.54777
G1 X127.752 Y90.512 E55.62862
G1 X128.448 Y90.785 E55.70936
G1 X129.2 Y91.179 E55.80105
G1 X129.543 Y90.912 E55.848
G1 X130.179 Y90.517 E55.92885
G1 X130.853 Y90.193 E56.00962
G1 X131.558 Y89.943 E56.09041
G1 X132.286 Y89.769 E56.17124
G1 X133.176 Y89.655 E56.26815
G1 X135.97 Y89.655 E56.5699
G1 X136.717 Y89.695 E56.65069
G1 X137.455 Y89.814 E56.73143
G1 X138.177 Y90.012 E56.81228
G1 X138.873 Y90.285 E56.89303
G1 X139.536 Y90.632 E56.97384
G1 X140.159 Y91.047 E57.05469
G1 X140.733 Y91.526 E57.13543
G1 X141.254 Y92.063 E57.21624
G1 X141.713 Y92.653 E57.29697
G1 X142.108 Y93.289 E57.37783
G1 X142.432 Y93.963 E57.45859
G1 X142.682 Y94.668 E57.53938
G1 X142.856 Y95.396 E57.62022
G1 X142.916 Y95.865 E57.67128
G1 X143.334 Y95.877 E57.71644
G1 X144.076 Y95.976 E57.79729
G1 X144.802 Y96.155 E57.87805
G1 X145.506 Y96.41 E57.95891
G1 X146.178 Y96.738 E58.03967
G1 X146.811 Y97.137 E58.12048
G1 X147.398 Y97.6 E58.20123
G1 X147.932 Y98.124 E58.28203
G1 X148.407 Y98.702 E58.36283
G1 X148.818 Y99.327 E58.44361
G1 X149.16 Y99.992 E58.52437
G1 X149.429 Y100.69 E58.60516
G1 X149.622 Y101.413 E58.68598
G1 X149.737 Y102.152 E58.76675
G1 X149.772 Y102.854 E58.84266
G1 X149.772 Y116.329 E60.29796
G1 X149.732 Y117.076 E60.37875
G1 X149.613 Y117.814 E60.45949
G1 X149.415 Y118.536 E60.54034
G1 X149.142 Y119.232 E60.62109
G1 X148.795 Y119.895 E60.70191
G1 X148.38 Y120.518 E60.78275
G1 X147.901 Y121.092 E60.86349
G1 X147.364 Y121.613 E60.9443
G1 X146.774 Y122.072 E61.02503
G1 X146.138 Y122.467 E61.10589
G1 X145.464 Y122.791 E61.18665
G1 X144.759 Y123.041 E61.26744
G1 X144.031 Y123.215 E61.34828
G1 X142.97 Y123.351 E61.4638
G1 X142.971 Y126.344 E61.78705
G1 X142.931 Y127.091 E61.86784
G1 X142.812 Y127.829 E61.94857
G1 X142.614 Y128.551 E62.02943
G1 X142.341 Y129.247 E62.11017
G1 X141.995 Y129.91 E62.19094
G1 X141.58 Y130.533 E62.27178
G1 X141.101 Y131.107 E62.35253
G1 X140.564 Y131.628 E62.43333
G1 X139.974 Y132.088 E62.51413
G1 X139.338 Y132.482 E62.59493
G1 X138.664 Y132.806 E62.6757
G1 X137.959 Y133.057 E62.75652
G1 X137.231 Y133.231 E62.83736
G1 X136.341 Y133.345 E62.93426
G1 X133.545 Y133.345 E63.23623
G1 X132.798 Y133.305 E63.31702
G1 X132.06 Y133.186 E63.39775
G1 X131.338 Y132.988 E63.47861
G1 X130.642 Y132.715 E63.55935
G1 X129.979 Y132.368 E63.64017
G1 X129.195 Y131.846 E63.74189
G1 X128.238 Y132.306 E63.85657
G1 X127.533 Y132.557 E63.93739
G1 X126.806 Y132.731 E64.01813
G1 X125.916 Y132.845 E64.11503
G1 X124.272 Y132.845 E64.29258
G1 X123.525 Y132.805 E64.37337
G1 X122.787 Y132.686 E64.45411
G1 X122.065 Y132.488 E64.53496
G1 X121.7 Y132.345 E64.5773
G1 X99.85 Y132.345 E66.9371
G1 X99.103 Y132.305 E67.01789
G1 X98.365 Y132.186 E67.09863
G1 X97.643 Y131.988 E67.17948
G1 X96.947 Y131.715 E67.26022
G1 X96.579 Y131.522 E67.3051
G1 X95.852 Y132.088 E67.40461
G1 X95.216 Y132.483 E67.48547
G1 X94.542 Y132.807 E67.56623
G1 X93.837 Y133.057 E67.64702
G1 X93.109 Y133.231 E67.72786
G1 X92.219 Y133.345 E67.82476
G1 X89.424 Y133.345 E68.12662
G1 X88.677 Y133.305 E68.20741
G1 X87.939 Y133.186 E68.28815
G1 X87.217 Y132.988 E68.369
G1 X86.521 Y132.715 E68.44974
G1 X85.858 Y132.368 E68.53056
G1 X85.235 Y131.953 E68.61141
G1 X84.712 Y131.516 E68.68501
G1 X84.117 Y131.802 E68.75631
G1 X83.412 Y132.053 E68.83713
G1 X82.685 Y132.227 E68.91787
G1 X81.793 Y132.341 E69.01499
G1 X78.848 Y132.34 E69.33305
G1 X78.101 Y132.3 E69.41384
G1 X77.363 Y132.18 E69.49459
G1 X76.641 Y131.982 E69.57545
G1 X75.945 Y131.708 E69.65623
G1 X75.282 Y131.362 E69.737
G1 X74.002 Y130.53 E69.90187
G1 X73.425 Y130.054 E69.98266
G1 X72.902 Y129.52 E70.06338
G1 X72.438 Y128.932 E70.14428
G1 X72.04 Y128.299 E70.22503
G1 X71.712 Y127.627 E70.30579
G1 X71.458 Y126.923 E70.38662
G1 X71.28 Y126.197 E70.46735
G1 X71.18 Y125.455 E70.54821
G1 X71.158 Y124.898 E70.60841
G1 X71.155 Y99.038 E73.40129
G1 X71.195 Y98.291 E73.48209
G1 X71.314 Y97.552 E73.56293
G1 X71.512 Y96.831 E73.64368
G1 X71.785 Y96.134 E73.72452
G1 X71.961 Y95.632 E73.78197
G1 X72.234 Y94.936 E73.86272
G1 X72.581 Y94.273 E73.94353
G1 X72.996 Y93.65 E74.02438
G1 X73.475 Y93.076 E74.10512
G1 X73.964 Y92.587 E74.17981
G1 X74.627 Y92.038 E74.27277
G0 F4500 X74.883 Y92.347
G1 F1800 X75.49 Y91.949 E74.35117
